X:320
T: Four Shoves [a]
T: Ceithre Thurraing (1)
S: B.Breathnach:"Ceol Rince na hEireann" III/66
Z: B.Black
L: 1/8
M: 2/4
Q: 275
R: polka
K: D
A|dA/d/ fe|dB Bc/B/|Ad fe|df af|
dA/d/ fe|dB Bc/B/|Ad fe|d2 d :|
e|fa d'2|c'b b2|gg/f/ gb|ba a2|
fa d'd'|c'b b2|gg/f/ gb|ag f :|
